X: 535
T: Pan wugeng
%%abc-version 2.0
%%abcx-abcm2ps-target-version 5.9.1 (29 Sep 2008)
%%abc-creator hum2abc beta
%%abcx-conversion-date 2013/10/02 07:52:30
%%abc-edited-by Helmut Schaffrath
%%humdrum-veritas 3030091181
%%humdrum-veritas-data 2005792183
%%continueall 1
%%barnumbers 0
L: 1/8
M: 2/4
K: A
E2E F [I:setbarnb 1]| 
A4 | 
e c B A/ F/ | 
E4 | 
AB3 | 
e cB2 | 
A B A F | 
E4 | 
A> cB2 | 
B e c B | 
c2E3/ F/ | 
A4 | 
c> B A F | 
E> FA2 | 
F E C B, | 
E4 |]  



